Origami/32x32/apps/chrome-jjphmlaoffndcnecccgemfdaaoighkel-Default.svg

<svg width="32" height="32" version="1" xmlns="http://www.w3.org/2000/svg">
 <path d="m16.135 10.001c-2.3369 0-5.7849 0.1431-6.8184 0.17654-1.1235 0.10033-1.5379 0.15788-2.1508 0.68051-0.94351 0.82906-1.1657 2.4576-1.1657 4.9518v2.3729c0 2.8434 0.37833 4.29 1.0096 4.818 0.72128 0.61674 1.1988 0.66496 1.6763 0.73807 0.18609 0.02722 1.5079 0.26132 7.362 0.26132 3.6495 0 6.7853-0.17343 7.1098-0.21232 0.52289-0.06688 1.2649-0.16099 1.8386-0.78706 0.83817-0.94805 1.0035-2.5214 1.0035-4.8033v-2.7617c0-1.4761-0.08074-3.5604-1.0035-4.4354-0.69975-0.58952-0.95505-0.75362-2.3999-0.82673-0.40832-0.01789-3.9709-0.17343-6.4608-0.17343m-2.1357 3.9999 4.9999 2.9996-4.9999 3.0004" style="opacity:.2"/>
 <rect transform="matrix(0,-1,-1,0,0,0)" x="-30" y="-30" width="28" height="28" rx="1.5" ry="1.5" fill="#c2352a"/>
 <path d="m3.5 2c-0.831 0-1.5 0.669-1.5 1.5v1c0-0.831 0.669-1.5 1.5-1.5h25c0.831 0 1.5 0.669 1.5 1.5v-1c0-0.831-0.669-1.5-1.5-1.5h-25z" fill="#fff" opacity=".1"/>
 <path d="m2 28.5v1c0 0.831 0.669 1.5 1.5 1.5h25c0.831 0 1.5-0.669 1.5-1.5v-1c0 0.831-0.669 1.5-1.5 1.5h-25c-0.831 0-1.5-0.669-1.5-1.5z" opacity=".2"/>
 <path d="m9.3166 9.1773c-1.1236 0.1003-1.538 0.1579-2.1509 0.6805-0.9435 0.8292-1.1657 2.4572-1.1657 4.9522v2.3729c0 2.8434 0.37833 4.29 1.0096 4.818 0.72128 0.61674 1.1988 0.66496 1.6763 0.73807 0.18609 0.02722 1.5079 0.26132 7.362 0.26132 3.6495 0 6.7853-0.17343 7.1098-0.21232 0.52289-0.06688 1.2649-0.16099 1.8386-0.78706 0.83817-0.94805 1.0035-2.5214 1.0035-4.8033v-2.7617c0-1.4761-0.08074-3.5604-1.0035-4.4354-0.699-0.5904-0.955-0.7545-2.4-0.8276-0.408-0.0179-3.97-0.1734-6.4606-0.17278-2.338 6e-4 -5.786 0.1437-6.8194 0.1771zm4.684 3.8221 4.9999 2.9996-4.9999 3.0004" style="fill:#f9f9f9"/>
 <circle cx="24.5" cy="23.5" r="7.5" style="fill:#03a9f4"/>
 <path d="M 31.979,23.947 A 7.5,7.5 0 0 1 24.5,31 7.5,7.5 0 0 1 17.021,24.053 7.5,7.5 0 0 0 17,24.5 7.5,7.5 0 0 0 24.5,32 7.5,7.5 0 0 0 32,24.5 7.5,7.5 0 0 0 31.979,23.947 Z" style="opacity:.2"/>
 <path d="m27 19 3 3h-1l-2.5 2.5c1.5 1.5-0.5 2.5-0.5 2.5l-1.5-1.5-2.5 2.5h-1v-1l2.5-2.5-1.5-1.5s1-2 2.5-0.5l2.5-2.5z" style="fill:#ffffff"/>
</svg>

<svg xmlns="http://www.w3.org/2000/svg" width="32" height="32" version="1">
 <path style="opacity:0.2" d="m16.135 10.001c-2.3369 0-5.7849 0.1431-6.8184 0.17654-1.1235 0.10033-1.5379 0.15788-2.1508 0.68051-0.94351 0.82906-1.1657 2.4576-1.1657 4.9518v2.3729c0 2.8434 0.37833 4.29 1.0096 4.818 0.72128 0.61674 1.1988 0.66496 1.6763 0.73807 0.18609 0.02722 1.5079 0.26132 7.362 0.26132 3.6495 0 6.7853-0.17343 7.1098-0.21232 0.52289-0.06688 1.2649-0.16099 1.8386-0.78706 0.83817-0.94805 1.0035-2.5214 1.0035-4.8033v-2.7617c0-1.4761-0.08074-3.5604-1.0035-4.4354-0.69975-0.58952-0.95505-0.75362-2.3999-0.82673-0.40832-0.01789-3.9709-0.17343-6.4608-0.17343m-2.1357 3.9999 4.9999 2.9996-4.9999 3.0004"/>
 <rect fill="#c2352a" width="28" height="28" x="-30" y="-30" rx="1.5" ry="1.5" transform="matrix(0,-1,-1,0,0,0)"/>
 <path fill="#fff" opacity=".1" d="m3.5 2c-0.831 0-1.5 0.669-1.5 1.5v1c0-0.831 0.669-1.5 1.5-1.5h25c0.831 0 1.5 0.669 1.5 1.5v-1c0-0.831-0.669-1.5-1.5-1.5h-25z"/>
 <path opacity=".2" d="m2 28.5v1c0 0.831 0.669 1.5 1.5 1.5h25c0.831 0 1.5-0.669 1.5-1.5v-1c0 0.831-0.669 1.5-1.5 1.5h-25c-0.831 0-1.5-0.669-1.5-1.5z"/>
 <path style="fill:#f9f9f9" d="m9.3166 9.1773c-1.1236 0.1003-1.538 0.1579-2.1509 0.6805-0.9435 0.8292-1.1657 2.4572-1.1657 4.9522v2.3729c0 2.8434 0.37833 4.29 1.0096 4.818 0.72128 0.61674 1.1988 0.66496 1.6763 0.73807 0.18609 0.02722 1.5079 0.26132 7.362 0.26132 3.6495 0 6.7853-0.17343 7.1098-0.21232 0.52289-0.06688 1.2649-0.16099 1.8386-0.78706 0.83817-0.94805 1.0035-2.5214 1.0035-4.8033v-2.7617c0-1.4761-0.08074-3.5604-1.0035-4.4354-0.699-0.5904-0.955-0.7545-2.4-0.8276-0.408-0.0179-3.97-0.1734-6.4606-0.17278-2.338 0.0006-5.786 0.1437-6.8194 0.1771zm4.684 3.8221 4.9999 2.9996-4.9999 3.0004"/>
 <g>
  <circle style="fill:#03a9f4" cx="24.5" cy="23.5" r="7.5"/>
  <path style="opacity:0.2" d="M 31.979,23.947 A 7.5,7.5 0 0 1 24.5,31 7.5,7.5 0 0 1 17.021,24.053 7.5,7.5 0 0 0 17,24.5 7.5,7.5 0 0 0 24.5,32 7.5,7.5 0 0 0 32,24.5 7.5,7.5 0 0 0 31.979,23.947 Z"/>
  <path style="fill:#ffffff" d="m 27,19 3,3 h -1 l -2.5,2.5 C 28,26 26,27 26,27 L 24.5,25.5 22,28 H 21 V 27 L 23.5,24.5 22,23 c 0,0 1,-2 2.5,-0.5 L 27,20 Z"/>
 </g>
</svg>
